packages/dnb-ui-lib/assets/icons/office_buildings.svg

<svg width="16" height="16" viewBox="0 0 16 16" fill="none" xmlns="http://www.w3.org/2000/svg">
<path d="M1 9.5V7.72727C1 7.17499 1.44772 6.72727 2 6.72727H7C7.55228 6.72727 8 7.17499 8 7.72727V14C8 14.5523 7.55228 15 7 15H5.77273C5.24555 15 4.81818 14.5726 4.81818 14.0455V14.0455C4.81818 13.5183 4.39082 13.0909 3.86364 13.0909V13.0909C3.33646 13.0909 2.90909 13.5183 2.90909 14.0455V14.0455C2.90909 14.5726 2.48173 15 1.95455 15V15C1.42736 15 1 14.5726 1 14.0455V9.5ZM1 9.5H3.86364M9.59091 4H8.36364C7.81135 4 7.36364 3.55228 7.36364 3V2C7.36364 1.44772 7.81135 1 8.36364 1H14C14.5523 1 15 1.44772 15 2V14C15 14.5523 14.5523 15 14 15H12.7727C12.2455 15 11.8182 14.5726 11.8182 14.0455V14.0455C11.8182 13.5183 11.3908 13.0909 10.8636 13.0909V13.0909C10.3365 13.0909 9.90909 13.5183 9.90909 14.0455V15H9.59091" stroke="black" stroke-width="1.5" stroke-linecap="round" stroke-linejoin="round"/>
</svg>

<svg width="16" height="16" viewBox="0 0 16 16" fill="none" xmlns="http://www.w3.org/2000/svg"><path d="M1 9.5V7.727a1 1 0 011-1h5a1 1 0 011 1V14a1 1 0 01-1 1H5.773a.955.955 0 01-.955-.954v0a.955.955 0 00-.954-.955v0a.955.955 0 00-.955.955v0a.955.955 0 01-.954.954v0A.955.955 0 011 14.046V9.5zm0 0h2.864M9.59 4H8.364a1 1 0 01-1-1V2a1 1 0 011-1H14a1 1 0 011 1v12a1 1 0 01-1 1h-1.227a.955.955 0 01-.955-.954v0a.955.955 0 00-.954-.955v0a.955.955 0 00-.955.955V15h-.318" stroke="#000" stroke-width="1.5" stroke-linecap="round" stroke-linejoin="round"/></svg>
